X: 06093
T: TOLEMANS' HORNPIPE
C: Bob McQuillen 28 April 82
B: Bob's Note Book 6 #93
%R: hornpipe, reel
Z: 2021 John Chambers <jc:trillian.mit.edu>
M: C
L: 1/8
K: D	% and Bb
AG \
| FDFA dBAG | FAdf a2AG | FAdf gfed | cedf e2fe |\
| dAdf dBAG | FAde fafd | cedf abaf | e2d2 d2 :|
|: fe \
| d2Bd fgfe | dBBA B2DE | FABd BAFE | FABd Bdfe |\
| d2Bd BAFA | BdAB AFEF | BAFD EDFE | D2B,2 B,2 :|
%%begintext align
%% Saratoga Springs,
%% N.Y., is noteworthy for being the home of Bill and
%% D.G. Toleman, who operate a hostel for itinerant
%% msicians. They also like to dance pretty well, and
%% while Bill takes care of the plumbing, D.G. keeps busy
%% in the kitchen cooking up the best damn lemon-nut
%% bread you ever tasted! Yum, yum! It's _so_ good!
%% P.S.- Thanks, Folks!!
%%endtext

%%sep 1 1 500

%%sep 1 1 500

